static/img/xinglogo.svg

<?xml version="1.0" encoding="UTF-8"?>
<svg width="58px" height="22px" viewBox="0 0 58 22" version="1.1" xmlns="http://www.w3.org/2000/svg" xmlns:xlink="http://www.w3.org/1999/xlink">
    <!-- Generator: Sketch 56.3 (81716) - https://sketch.com -->
    <title>xinglogo</title>
    <desc>Created with Sketch.</desc>
    <g id="Page-1" stroke="none" stroke-width="1" fill="none" fill-rule="evenodd">
        <g id="Artboard-Copy-8" transform="translate(-436.000000, -523.000000)" fill="#343637" fill-rule="nonzero">
            <g id="Group" transform="translate(115.000000, 516.000000)">
                <g id="xinglogo" transform="translate(321.000000, 7.000000)">
                    <path d="M51.4235599,0 C46.4342364,0 43.6962428,3.00164384 43.6962428,8.43835616 L43.6962428,14.1643836 C43.6962428,19.3569851 46.0937206,22 50.8389875,22 C54.6759743,22 57.7829775,20.4532192 58,20.3424658 L58,10.0582192 C58,9.73876773 57.7800546,9.5119863 57.4702312,9.5119863 L51.1130058,9.5119863 C50.8031824,9.5119851 50.583237,9.73876712 50.583237,10.0582192 L50.583237,12.6952055 C50.583237,13.0146575 50.8031824,13.2414384 51.1130058,13.2414384 L54.0724038,13.2414384 C54.0848237,13.2414378 54.0906717,13.2474658 54.0906717,13.260274 L54.0906717,17.7054795 C54.0906706,17.7152734 54.0804417,17.7213014 54.0724038,17.7243151 C54.0585191,17.7303419 52.6781985,18.2705479 50.9668627,18.2705479 C48.7060287,18.2705479 47.6055711,16.8239726 47.6055711,13.8630137 L47.6055711,8.43835616 C47.6055699,6.89910899 47.8993187,5.76746575 48.5006976,4.99143836 C49.1590724,4.14232877 50.154307,3.72945205 51.569703,3.72945205 L52.1908113,3.72945205 C54.2455823,3.72945205 55.8326976,4.20260274 56.849123,4.53938356 C57.0069581,4.59136986 57.1516392,4.56424658 57.2510165,4.48287671 C57.3525843,4.4 57.4154275,4.25910959 57.4154275,4.08732877 L57.4154275,1.56335616 C57.4154287,1.27780882 57.2795145,1.11732877 56.8673909,0.904109589 C56.3420076,0.632876712 54.8462316,0 52.2638828,0 L51.4235599,0 Z M0.675363861,0.282534247 C0.527759317,0.282534247 0.413036985,0.34130137 0.346541856,0.452054795 C0.274201015,0.571849315 0.274931725,0.737602137 0.346541856,0.885273973 L5.57115815,10.6986301 C5.57481173,10.705411 5.57481185,10.7295212 5.57115815,10.7363014 L0.0542556301,21.0393836 C-0.0180852109,21.1878082 -0.0180852092,21.3528082 0.0542556301,21.4726027 C0.120020031,21.5833562 0.23547309,21.6421233 0.383077635,21.6421233 L3.94531602,21.6421233 C4.3530553,21.6421233 4.49846776,21.406302 4.65776369,21.0770548 L8.31134152,14.1455479 C8.3149951,14.1380137 8.32157154,14.1267129 8.32960941,14.1267123 C8.338378,14.1267123 8.34422372,14.1380137 8.3478773,14.1455479 C8.3478773,14.1455479 12.0189923,21.0763014 12.019723,21.0770548 C12.1782883,21.4055479 12.3061641,21.6421233 12.7139028,21.6421233 L16.2944091,21.6421233 C16.4420136,21.6421233 16.5574661,21.5833562 16.6232311,21.4726027 C16.6597669,21.4123288 16.6780348,21.3384938 16.6780348,21.265411 C16.6780348,21.1915753 16.6590356,21.1139726 16.6232311,21.0393836 C16.6225004,21.0378767 11.0880607,10.736302 11.0880607,10.7363014 C11.0858685,10.7325342 11.0880613,10.7212329 11.0880607,10.7174658 C11.0880607,10.7136986 11.0858685,10.7016426 11.0880607,10.6986301 L16.3309449,0.885273973 C16.3667499,0.810684932 16.3857491,0.733082795 16.3857485,0.659246575 C16.3857485,0.586164384 16.3667493,0.511575342 16.3309449,0.452054795 C16.2644497,0.34130137 16.1489961,0.282534247 16.0021229,0.282534247 L12.4216166,0.282534247 C12.0138773,0.282534247 11.8684649,0.519109589 11.7091689,0.84760274 L8.3478773,7.28938356 C8.34422372,7.29616438 8.338378,7.30821978 8.32960941,7.30821918 C8.32157154,7.30821918 8.3149951,7.29616378 8.31134152,7.28938356 C8.31134152,7.28938356 4.95078087,0.84760274 4.95004992,0.84760274 C4.81705969,0.571849315 4.67676218,0.282534247 4.23760224,0.282534247 L0.675363861,0.282534247 Z M19.272075,0.282534247 C18.9629823,0.282534247 18.7423062,0.510068493 18.7423062,0.828767123 L18.7423062,21.0958904 C18.7423062,21.414589 18.9629817,21.6421233 19.272075,21.6421233 L22.1035978,21.6421233 C22.4126905,21.6421233 22.6333666,21.414589 22.6333666,21.0958904 L22.6333666,0.828767123 C22.6333666,0.510068493 22.4126899,0.282534247 22.1035978,0.282534247 L19.272075,0.282534247 Z M26.8349811,0.282534247 C26.5258884,0.282534247 26.2869444,0.510068493 26.2869444,0.828767123 L26.2869444,21.0958904 C26.2869444,21.414589 26.5258884,21.6421233 26.8349811,21.6421233 L29.6665039,21.6421233 C29.9755966,21.6421233 30.1962733,21.414589 30.1962727,21.0958904 L30.1962727,8.87157534 C30.1962727,8.8610274 30.2050413,8.8549994 30.2145406,8.85273973 C30.2240399,8.84972603 30.2284248,8.86253425 30.2328085,8.87157534 C30.2328085,8.87157534 36.3708181,21.0763002 36.3708193,21.0770548 C36.497233,21.3377397 36.6937961,21.6421233 37.0832669,21.6421233 L40.042665,21.6421233 C40.3517577,21.6421233 40.5724338,21.414589 40.5724338,21.0958904 L40.5724338,0.828767123 C40.5724338,0.510068493 40.3517553,0.282534247 40.042665,0.282534247 L37.2111422,0.282534247 C36.9020495,0.282534247 36.6813722,0.510068493 36.6813734,0.828767123 L36.6813734,13.0342466 C36.6813734,13.0447945 36.6726048,13.0508231 36.6631055,13.0530822 C36.6536062,13.0560959 36.6316841,13.0621239 36.6265697,13.0530822 C36.6265697,13.0530822 30.4885589,0.848355562 30.4885589,0.84760274 C30.3541073,0.57260274 30.2152707,0.282534247 29.7761113,0.282534247 L26.8349811,0.282534247 Z" id="path19359"></path>
                </g>
            </g>
        </g>
    </g>
</svg>

<svg width="58" height="22" viewBox="0 0 58 22" xmlns="http://www.w3.org/2000/svg"><path d="M51.424 0c-4.99 0-7.728 3.002-7.728 8.438v5.726c0 5.193 2.398 7.836 7.143 7.836 3.837 0 6.944-1.547 7.161-1.658V10.058c0-.32-.22-.546-.53-.546h-6.357c-.31 0-.53.227-.53.546v2.637c0 .32.22.546.53.546h2.96c.012 0 .018.006.018.02v4.444c0 .01-.01.016-.019.02a9.38 9.38 0 01-3.105.546c-2.261 0-3.361-1.447-3.361-4.408V8.438c0-1.539.293-2.67.895-3.447.658-.849 1.653-1.262 3.069-1.262h.62c2.056 0 3.643.474 4.66.81.157.052.302.025.401-.056a.5.5 0 00.164-.396V1.563c0-.285-.135-.446-.548-.659C56.342.633 54.847 0 52.264 0h-.84zM.675.283C.528.283.413.34.347.453a.46.46 0 000 .432L5.57 10.7a.066.066 0 010 .037L.054 21.04a.459.459 0 000 .434c.066.11.181.17.33.17h3.561c.408 0 .553-.237.713-.566l3.653-6.931c.004-.008.01-.02.019-.02.008 0 .014.012.018.02l3.672 6.931c.158.329.286.565.694.565h3.58c.148 0 .263-.059.33-.17a.404.404 0 00.054-.207.527.527 0 00-.055-.226l-5.535-10.303c-.002-.003 0-.015 0-.019 0-.003-.002-.015 0-.018L16.331.885a.527.527 0 00.055-.226.41.41 0 00-.055-.207c-.067-.11-.182-.17-.329-.17h-3.58c-.408 0-.554.237-.713.566L8.348 7.289c-.004.007-.01.02-.018.02-.008 0-.015-.013-.019-.02L4.95.848C4.817.572 4.677.283 4.238.283H.675zm18.597 0c-.309 0-.53.227-.53.546v20.267c0 .319.221.546.53.546h2.832c.309 0 .53-.227.53-.546V.829c0-.319-.221-.546-.53-.546h-2.832zm7.563 0a.533.533 0 00-.548.546v20.267c0 .319.239.546.548.546h2.832c.309 0 .53-.227.53-.546V8.872c0-.011.008-.017.018-.02.009-.002.013.01.018.02l6.138 12.205c.126.26.323.565.712.565h2.96c.309 0 .53-.227.53-.546V.829c0-.319-.221-.546-.53-.546H37.21c-.309 0-.53.227-.53.546v12.205c0 .01-.008.017-.018.02-.01.002-.031.008-.036 0L30.489.847c-.135-.275-.274-.565-.713-.565h-2.941z" fill="#343637" fill-rule="nonzero"/></svg>
